X: 1
T: Reepakan polkka
O: trad.
R: polka
Z: 2013 John Chambers <jc:trillian.mit.edu>
M: 2/4
L: 1/16
K: D
FG |\
"D"A2AG F2FG | AAAF A2fg | "A7"fafg gaec |1,3 "(D)"e2d2 "D"dd :|2,4 "(D)"e2d2 "D"d2 :|
|: A2 |\
"D"d2dg gfga | "G"abb2 bagf | "A7"edcd cegb | "D"a2aa a2ab |
"D"agfg a2Ac | "A7"cedc "G"d2B2 | "A7"A2Ag gfec | "(D)"e2d2 "D"d2 :|

%%sep 1 1 500

